svgs/binary_eye.svg

<svg width="192" height="192" viewBox="0 0 192 192" fill="none" xmlns="http://www.w3.org/2000/svg"><path fill-rule="evenodd" clip-rule="evenodd" d="M96 28c-37.555 0-68 30.445-68 68s30.445 68 68 68 68-30.445 68-68-30.445-68-68-68ZM16 96c0-44.183 35.817-80 80-80s80 35.817 80 80-35.817 80-80 80-80-35.817-80-80Z" fill="#000"/><path d="M102 149.884c0 1.023-.771 1.884-1.791 1.96a56.926 56.926 0 0 1-8.418 0c-1.02-.076-1.791-.937-1.791-1.96V42.116c0-1.023.771-1.884 1.79-1.96a56.768 56.768 0 0 1 8.419 0c1.02.076 1.791.937 1.791 1.96v107.768Zm22-7.683c0 1.428-.756 2.758-2.02 3.421a55.7 55.7 0 0 1-7.429 3.232c-1.262.443-2.551-.517-2.551-1.855V45.001c0-1.338 1.289-2.298 2.551-1.855a55.57 55.57 0 0 1 7.429 3.232c1.264.663 2.02 1.993 2.02 3.421v92.402ZM152 96c0 11.012-3.178 21.281-8.668 29.941-1.016 1.603-3.332.835-3.332-1.063V67.122c0-1.898 2.316-2.666 3.332-1.063C148.822 74.719 152 84.989 152 96ZM62 53.475c0-1.245.575-2.427 1.59-3.149a55.83 55.83 0 0 1 13.859-7.18C78.71 42.703 80 43.663 80 45v101.998c0 1.338-1.289 2.298-2.551 1.855a55.816 55.816 0 0 1-13.859-7.18c-1.015-.722-1.59-1.904-1.59-3.149v-85.05ZM40 96c0-11.012 3.178-21.281 8.668-29.941C49.684 64.456 52 65.224 52 67.122v57.756c0 1.898-2.316 2.666-3.332 1.063C43.178 117.281 40 107.012 40 96Z" fill="#000"/></svg>

<?xml version="1.0" encoding="UTF-8" standalone="no"?><svg xmlns:android="http://schemas.android.com/apk/res/android" height="192" width="192" xmlns="http://www.w3.org/2000/svg">
    <path d="M 96 28 C 58.445 28 28 58.445 28 96 C 28 133.555 58.445 164 96 164 C 133.555 164 164 133.555 164 96 C 164 58.445 133.555 28 96 28 Z M 16 96 C 16 51.817 51.817 16 96 16 C 140.183 16 176 51.817 176 96 C 176 140.183 140.183 176 96 176 C 51.817 176 16 140.183 16 96 Z" fill="#000000"/>
    <path d="M 102 149.884 C 102 150.907 101.229 151.768 100.209 151.844 C 98.82 151.947 97.416 152 96 152 C 94.584 152 93.18 151.947 91.791 151.844 C 90.771 151.768 90 150.907 90 149.884 L 90 42.116 C 90 41.093 90.771 40.232 91.791 40.156 C 93.18 40.053 94.584 40 96 40 C 97.416 40 98.82 40.053 100.209 40.156 C 101.229 40.232 102 41.093 102 42.116 L 102 149.884 Z M 124 142.201 C 124 143.629 123.244 144.959 121.98 145.622 C 119.599 146.871 117.118 147.953 114.551 148.854 C 113.289 149.297 112 148.337 112 146.999 L 112 45.001 C 112 43.663 113.289 42.703 114.551 43.146 C 117.118 44.047 119.599 45.129 121.98 46.378 C 123.244 47.041 124 48.371 124 49.799 L 124 142.201 Z M 152 96 C 152 107.012 148.822 117.281 143.332 125.941 C 142.316 127.544 140 126.776 140 124.878 L 140 67.122 C 140 65.224 142.316 64.456 143.332 66.059 C 148.822 74.719 152 84.988 152 96 Z M 62 53.475 C 62 52.23 62.575 51.048 63.59 50.326 C 67.813 47.324 72.47 44.893 77.449 43.146 C 78.711 42.703 80 43.663 80 45.001 L 80 146.999 C 80 148.337 78.711 149.297 77.449 148.854 C 72.47 147.107 67.813 144.676 63.59 141.674 C 62.575 140.952 62 139.77 62 138.525 L 62 53.475 Z M 40 96 C 40 84.988 43.178 74.719 48.668 66.059 C 49.684 64.456 52 65.224 52 67.122 L 52 124.878 C 52 126.776 49.684 127.544 48.668 125.941 C 43.178 117.281 40 107.012 40 96 Z" fill="#000000"/>
</svg>
